Yosa-Max/apps/scalable/panel-searchtool.svg

<?xml version="1.0" encoding="UTF-8"?>
<svg id="SVGRoot" version="1.1" viewBox="0 0 48 48" xmlns="http://www.w3.org/2000/svg" xmlns:xlink="http://www.w3.org/1999/xlink">
 <defs>
  <linearGradient id="linearGradient824" x1="26.20339" x2="19.102316" y1="45.762711" y2="1.999645" gradientUnits="userSpaceOnUse">
   <stop style="stop-color:#00b5c2" offset="0"/>
   <stop style="stop-color:#42f2ff" offset="1"/>
  </linearGradient>
 </defs>
 <path d="m19.102316 1.999645a17.102326 17.102324 0 0 0-17.102316 17.102317 17.102326 17.102324 0 0 0 17.102316 17.10234 17.102326 17.102324 0 0 0 10.226092-3.421441l13.217492 13.217494 3.4541-3.4541-13.217492-13.217494a17.102326 17.102324 0 0 0 3.421416-10.226091 17.102326 17.102324 0 0 0-17.10234-17.102316m0 4.8863903a12.215948 12.215946 0 0 1 12.21595 12.215926 12.215948 12.215946 0 0 1-0.0621 1.221598 12.215948 12.215946 0 0 1-1.970792 5.506735 12.215948 12.215946 0 0 1-3.454809 3.454809 12.215948 12.215946 0 0 1-0.930529 0.553536 12.215948 12.215946 0 0 1-0.119291 0.07162 12.215948 12.215946 0 0 1-0.02445 0.0098 12.215948 12.215946 0 0 1-1.083214 0.501052 12.215948 12.215946 0 0 1-1.064122 0.372227 12.215948 12.215946 0 0 1-0.09069 0.03349 12.215948 12.215946 0 0 1-0.01467 0.0049 12.215948 12.215946 0 0 1-1.111839 0.262443 12.215948 12.215946 0 0 1-0.0621 0.01467 12.215948 12.215946 0 0 1-0.0098 0 12.215948 12.215946 0 0 1-0.897089 0.124181 12.215948 12.215946 0 0 1-0.362669 0.04767 12.215948 12.215946 0 0 1-0.959154 0.03814 12.215948 12.215946 0 0 1-12.215949-12.215915 12.215948 12.215946 0 0 1 0.06209-1.221597 12.215948 12.215946 0 0 1 5.5544517-9.0569782 12.215948 12.215946 0 0 1 2.171194-1.1070718 12.215948 12.215946 0 0 1 4.428263-0.8303038" style="fill:url(#linearGradient824);stroke-width:1.3000001"/>
 <path d="m14.453402 10.747833a10.208933 10.208933 0 0 0-4.881634 10.913398 14.012261 14.012261 0 0 1 6.823623-9.952595 14.012261 14.012261 0 0 1 6.239107-1.8419848 10.208933 10.208933 0 0 0-8.181096 0.8811818z" style="fill:#80edfc"/>
</svg>

<?xml version="1.0" encoding="UTF-8" standalone="no"?>
<svg
   xmlns:dc="http://purl.org/dc/elements/1.1/"
   xmlns:cc="http://creativecommons.org/ns#"
   xmlns:rdf="http://www.w3.org/1999/02/22-rdf-syntax-ns#"
   xmlns:svg="http://www.w3.org/2000/svg"
   xmlns="http://www.w3.org/2000/svg"
   xmlns:xlink="http://www.w3.org/1999/xlink"
   width="48px"
   height="48px"
   viewBox="0 0 48 48"
   version="1.1"
   id="SVGRoot">
  <defs
     id="defs823">
    <linearGradient
       id="linearGradient822">
      <stop
         id="stop818"
         offset="0"
         style="stop-color:#00b5c2;stop-opacity:1" />
      <stop
         id="stop820"
         offset="1"
         style="stop-color:#42f2ff;stop-opacity:1" />
    </linearGradient>
    <linearGradient
       gradientTransform="matrix(2.4445151,0,0,2.4445151,-974.7584,-1256.4318)"
       gradientUnits="userSpaceOnUse"
       x2="406.56763"
       y2="514.79797"
       y1="532.612"
       id="c"
       x1="411.66486">
      <stop
         id="stop12"
         stop-color="#7cbaf8"
         style="stop-color:#2e89fc;stop-opacity:1" />
      <stop
         id="stop14"
         stop-color="#f4fcff"
         offset="1"
         style="stop-color:#42f2ff;stop-opacity:1" />
    </linearGradient>
    <linearGradient
       gradientUnits="userSpaceOnUse"
       y2="1.999645"
       x2="19.102316"
       y1="45.762711"
       x1="26.20339"
       id="linearGradient824"
       xlink:href="#linearGradient822" />
  </defs>
  <metadata
     id="metadata826">
    <rdf:RDF>
      <cc:Work
         rdf:about="">
        <dc:format>image/svg+xml</dc:format>
        <dc:type
           rdf:resource="http://purl.org/dc/dcmitype/StillImage" />
        <dc:title></dc:title>
      </cc:Work>
    </rdf:RDF>
  </metadata>
  <g
     id="layer1">
    <path
       d="M 19.102316,1.999645 A 17.102326,17.102324 0 0 0 2,19.101962 17.102326,17.102324 0 0 0 19.102316,36.204302 17.102326,17.102324 0 0 0 29.328408,32.782861 L 42.5459,46.000355 46,42.546255 32.782508,29.328761 A 17.102326,17.102324 0 0 0 36.203924,19.10267 17.102326,17.102324 0 0 0 19.101584,2.0003539 m 0,4.8863903 a 12.215948,12.215946 0 0 1 12.21595,12.2159258 12.215948,12.215946 0 0 1 -0.0621,1.221598 12.215948,12.215946 0 0 1 -1.970792,5.506735 12.215948,12.215946 0 0 1 -3.454809,3.454809 12.215948,12.215946 0 0 1 -0.930529,0.553536 12.215948,12.215946 0 0 1 -0.119291,0.07162 12.215948,12.215946 0 0 1 -0.02445,0.0098 12.215948,12.215946 0 0 1 -1.083214,0.501052 12.215948,12.215946 0 0 1 -1.064122,0.372227 12.215948,12.215946 0 0 1 -0.09069,0.03349 12.215948,12.215946 0 0 1 -0.01467,0.0049 12.215948,12.215946 0 0 1 -1.111839,0.262443 12.215948,12.215946 0 0 1 -0.0621,0.01467 12.215948,12.215946 0 0 1 -0.0098,0 12.215948,12.215946 0 0 1 -0.897089,0.124181 12.215948,12.215946 0 0 1 -0.362669,0.04767 12.215948,12.215946 0 0 1 -0.959154,0.03814 A 12.215948,12.215946 0 0 1 6.8842673,19.103626 12.215948,12.215946 0 0 1 6.9463573,17.882029 12.215948,12.215946 0 0 1 12.500809,8.8250508 12.215948,12.215946 0 0 1 14.672003,7.717979 12.215948,12.215946 0 0 1 19.100266,6.8876752"
       id="path27"
       style="fill:url(#linearGradient824);stroke-width:1.30000007;fill-opacity:1" />
    <path
       id="path847"
       d="M 14.453402,10.747833 A 10.208933,10.208933 0 0 0 9.571768,21.661231 14.012261,14.012261 0 0 1 16.395391,11.708636 14.012261,14.012261 0 0 1 22.634498,9.8666512 10.208933,10.208933 0 0 0 14.453402,10.747833 Z"
       style="opacity:1;fill:#80edfc;fill-opacity:1;stroke:none;stroke-width:1.62499988;stroke-miterlimit:4;stroke-dasharray:none;stroke-opacity:1" />
  </g>
</svg>
